assets/img/braze_icons/message-circle-01.svg

<svg fill="none" height="24" viewBox="0 0 24 24" width="24" xmlns="http://www.w3.org/2000/svg"><path clip-rule="evenodd" d="m3.00005 11.5c0-5.24671 4.25329-9.5 9.49995-9.5 5.2467 0 9.5 4.25329 9.5 9.5 0 5.2467-4.2532 9.5-9.5 9.5-1.2016 0-2.3534-.2236-3.4143-.6323-.09095-.0351-.14364-.0553-.18249-.0693-.00475-.0017-.00887-.0031-.01237-.0043l-.00407.0003c-.03162.0024-.07478.0068-.15734.0153l-5.15496.5329c-.21417.0222-.43759.0453-.62447.0475-.18574.0022-.52053-.0083-.84154-.2042-.37628-.2295-.63256-.6129-.70078-1.0483-.0582-.3715.06008-.6849.1331-.8557.07347-.1718.18029-.3694.28267-.5589l1.65188-3.0575c.07146-.1323.10966-.2035.13536-.2565.00135-.0027.0026-.0054.00375-.0078-.00193-.0069-.00426-.0151-.00708-.0246-.02165-.0733-.05497-.1727-.11156-.3406-.32176-.9546-.49575-1.976-.49575-3.036z" fill="#801ed7" fill-rule="evenodd"/></svg>

<svg width="24" height="24" viewBox="0 0 24 24" fill="none" xmlns="http://www.w3.org/2000/svg">
<path fill-rule="evenodd" clip-rule="evenodd" d="M3.00005 11.5C3.00005 6.25329 7.25334 2 12.5 2C17.7467 2 22 6.25329 22 11.5C22 16.7467 17.7468 21 12.5 21C11.2984 21 10.1466 20.7764 9.0857 20.3677C8.99475 20.3326 8.94206 20.3124 8.90321 20.2984C8.89846 20.2967 8.89434 20.2953 8.89084 20.2941L8.88677 20.2944C8.85515 20.2968 8.81199 20.3012 8.72943 20.3097L3.57447 20.8426C3.3603 20.8648 3.13688 20.8879 2.95 20.8901C2.76426 20.8923 2.42947 20.8818 2.10846 20.6859C1.73218 20.4564 1.4759 20.073 1.40768 19.6376C1.34948 19.2661 1.46776 18.9527 1.54078 18.7819C1.61425 18.6101 1.72107 18.4125 1.82345 18.223L3.47533 15.1655C3.54679 15.0332 3.58499 14.962 3.61069 14.909C3.61204 14.9063 3.61329 14.9036 3.61444 14.9012C3.61251 14.8943 3.61018 14.8861 3.60736 14.8766C3.58571 14.8033 3.55239 14.7039 3.4958 14.536C3.17404 13.5814 3.00005 12.56 3.00005 11.5Z" fill="#801ED7"/>
</svg>
